icons/xbox.svg

<svg aria-labelledby="simpleicons-xbox-icon" role="img" viewBox="0 0 24 24" xmlns="http://www.w3.org/2000/svg"><title id="simpleicons-xbox-icon">Xbox icon</title><path d="M4.102 21.033C6.211 22.881 8.977 24 12 24c3.026 0 5.789-1.119 7.902-2.967 1.877-1.912-4.316-8.709-7.902-11.417-3.582 2.708-9.779 9.505-7.898 11.417zm11.16-14.406c2.5 2.961 7.484 10.313 6.076 12.912C23.002 17.48 24 14.861 24 12.004c0-3.34-1.365-6.362-3.57-8.536 0 0-.027-.022-.082-.042-.063-.022-.152-.045-.281-.045-.592 0-1.985.434-4.805 3.246zM3.654 3.426c-.057.02-.082.041-.086.042C1.365 5.642 0 8.664 0 12.004c0 2.854.998 5.473 2.661 7.533-1.401-2.605 3.579-9.951 6.08-12.91-2.82-2.813-4.216-3.245-4.806-3.245-.131 0-.223.021-.281.046v-.002zM12 3.551S9.055 1.828 6.755 1.746c-.903-.033-1.454.295-1.521.339C7.379.646 9.659 0 11.984 0H12c2.334 0 4.605.646 6.766 2.085-.068-.046-.615-.372-1.52-.339C14.946 1.828 12 3.545 12 3.545v.006z"/></svg>

<?xml version="1.0" standalone="no"?><!-- Generator: Gravit.io --><svg xmlns="http://www.w3.org/2000/svg" xmlns:xlink="http://www.w3.org/1999/xlink" style="isolation:isolate" viewBox="0 0 24 24" width="24" height="24"><path d=" M 4.102 21.033 C 6.211 22.881 8.977 24 12 24 C 15.026 24 17.789 22.881 19.902 21.033 C 21.779 19.121 15.586 12.324 12 9.616 C 8.418 12.324 2.221 19.121 4.102 21.033 Z  M 15.262 6.627 C 17.762 9.588 22.746 16.94 21.338 19.539 C 23.002 17.48 24 14.861 24 12.004 C 24 8.664 22.635 5.642 20.43 3.468 C 20.43 3.468 20.403 3.446 20.348 3.426 C 20.285 3.404 20.196 3.381 20.067 3.381 C 19.475 3.381 18.082 3.815 15.262 6.627 Z  M 3.654 3.426 C 3.597 3.446 3.572 3.467 3.568 3.468 C 1.365 5.642 0 8.664 0 12.004 C 0 14.858 0.998 17.477 2.661 19.537 C 1.26 16.932 6.24 9.586 8.741 6.627 C 5.921 3.814 4.525 3.382 3.935 3.382 C 3.804 3.382 3.712 3.403 3.654 3.428 L 3.654 3.426 L 3.654 3.426 L 3.654 3.426 Z  M 12 3.551 C 12 3.551 9.055 1.828 6.755 1.746 C 5.852 1.713 5.301 2.041 5.234 2.085 C 7.379 0.646 9.659 0 11.984 0 L 12 0 C 14.334 0 16.605 0.646 18.766 2.085 C 18.698 2.039 18.151 1.713 17.246 1.746 C 14.946 1.828 12 3.545 12 3.545 L 12 3.551 L 12 3.551 L 12 3.551 Z " fill="rgb(56,142,60)"/></svg>
